X: 19994
T: Jim Keefe's
R: polka
M: 2/4
K: Amajor
|:ea c/d/c/B/|Ac EB|cB Bc/e/|fe cd|
ea c/d/c/B/|Ac EB|cB c/d/c/B/|1 A2 Ac:|2 A2 AB||
|:c/d/c/B/ Bc/e/|fe c/d/c/B/|cB Bc/e/|fe cd|
ea c/d/c/B/|Ac EB|cB c/d/c/B/|1 A2 AB:|2 A2 Ac||

